picto/car-train-left-framed.svg

<svg class="color-immutable" width="30" height="30" viewBox="0 0 30 30" fill="none" xmlns="http://www.w3.org/2000/svg"><path d="M30 0H0V30H30V0Z" fill="#2D327D"/><path d="M25.5 3C26.325 3 27 3.675 27 4.5V25.5C27 26.325 26.325 27 25.5 27H4.5C3.675 27 3 26.325 3 25.5V4.5C3 3.675 3.675 3 4.5 3H25.5ZM25.5 2.625H4.5C3.46613 2.625 2.625 3.46613 2.625 4.5V25.5C2.625 26.5339 3.46613 27.375 4.5 27.375H25.5C26.5339 27.375 27.375 26.5339 27.375 25.5V4.5C27.375 3.46613 26.5339 2.625 25.5 2.625Z" fill="white"/><path d="M8.25047 21.5342C8.25047 20.7581 7.62024 20.128 6.84407 20.128C6.53972 20.128 6.24362 20.2268 6.00024 20.4093V22.6591C6.24362 22.8418 6.53972 22.9405 6.84407 22.9405C7.62024 22.9405 8.25047 22.3105 8.25047 21.5342Z" fill="white"/><path d="M23.6706 13.1362L21.4201 10.8858C21.209 10.6747 20.9229 10.5562 20.6245 10.5562H14.1406C13.8422 10.5562 13.5562 10.6747 13.3453 10.8858L10.7315 13.4996L6.34395 13.8636C6.14932 13.8797 6 14.0422 6 14.2373V16.5751C6 16.7821 6.16792 16.9499 6.37515 16.9499H6.7875V16.5187C6.7875 15.2768 7.79542 14.2687 9.0375 14.2687C10.2793 14.2687 11.2875 15.2768 11.2875 16.5187V16.9499H18.7498V16.5187C18.7498 15.2768 19.7577 14.2687 21.0001 14.2687C22.2419 14.2687 23.2501 15.2768 23.2501 16.5187V16.9499H23.625C23.832 16.9499 23.9999 16.7821 23.9999 16.5751V13.9318C24 13.6333 23.8816 13.3471 23.6706 13.1362ZM16.913 13.1818C16.9125 13.3886 16.7448 13.5562 16.5379 13.5562H12.2785C12.1542 13.5562 12.0537 13.4555 12.0537 13.3312C12.0537 13.2715 12.0772 13.2143 12.1195 13.1722L13.9129 11.3786C13.9832 11.3082 14.0788 11.2687 14.1781 11.2687H16.5379C16.7448 11.2687 16.913 11.4367 16.913 11.6436V13.1818ZM22.4866 13.5562H18.0021C17.7952 13.5562 17.6272 13.3883 17.6272 13.1813V11.6437C17.6272 11.4368 17.7952 11.2687 18.0021 11.2687H20.5869C20.6864 11.2687 20.7817 11.3083 20.8522 11.3787L22.6457 13.1722C22.6878 13.2144 22.7116 13.2716 22.7116 13.3313C22.7117 13.4556 22.6109 13.5562 22.4866 13.5562Z" fill="white"/><path d="M6 18.6H24V19.7626H6V18.6Z" fill="white"/><path d="M6 23.2876H24V24.0001H6V23.2876Z" fill="white"/><path d="M11.811 21.5284C11.811 20.7521 11.1808 20.1221 10.4048 20.1221C9.62841 20.1221 8.99841 20.7521 8.99841 21.5284C8.99841 22.3047 9.62834 22.9346 10.4048 22.9346C11.1808 22.9346 11.811 22.3047 11.811 21.5284Z" fill="white"/><path d="M19.0811 21.5284C19.0811 20.7521 18.4515 20.1221 17.675 20.1221C16.8988 20.1221 16.2687 20.7521 16.2687 21.5284C16.2687 22.3047 16.8988 22.9346 17.675 22.9346C18.4516 22.9346 19.0811 22.3047 19.0811 21.5284Z" fill="white"/><path d="M22.6881 21.5284C22.6881 20.7521 22.0585 20.1221 21.282 20.1221C20.5059 20.1221 19.8759 20.7521 19.8759 21.5284C19.8759 22.3047 20.5058 22.9346 21.282 22.9346C22.0585 22.9346 22.6881 22.3047 22.6881 21.5284Z" fill="white"/><path d="M22.7064 16.5106C22.7064 15.5686 21.9419 14.8042 21.0003 14.8042C20.0582 14.8042 19.2939 15.5686 19.2939 16.5106C19.2939 17.4523 20.0583 18.2167 21.0003 18.2167C21.9419 18.2168 22.7064 17.4523 22.7064 16.5106ZM20.0626 16.5106C20.0626 15.9929 20.4825 15.5729 21.0003 15.5729C21.5175 15.5729 21.9375 15.993 21.9375 16.5106C21.9375 17.028 21.5175 17.448 21.0003 17.448C20.4825 17.448 20.0626 17.028 20.0626 16.5106Z" fill="white"/><path d="M10.7583 16.5106C10.7583 15.5686 9.99378 14.8042 9.052 14.8042C8.11015 14.8042 7.34583 15.5686 7.34583 16.5106C7.34583 17.4523 8.11015 18.2167 9.052 18.2167C9.99378 18.2168 10.7583 17.4523 10.7583 16.5106ZM8.11458 16.5106C8.11458 15.9929 8.53443 15.5729 9.052 15.5729C9.5695 15.5729 9.98943 15.993 9.98943 16.5106C9.98943 17.028 9.56958 17.448 9.052 17.448C8.53443 17.448 8.11458 17.028 8.11458 16.5106Z" fill="white"/></svg>

<svg class="color-immutable" width="30" height="30" viewBox="0 0 30 30" fill="none" xmlns="http://www.w3.org/2000/svg"><g clip-path="url(#a)"><path d="M30 0H0v30h30V0Z" fill="#2D327D"/><path d="M25.5 3c.825 0 1.5.675 1.5 1.5v21c0 .825-.675 1.5-1.5 1.5h-21c-.825 0-1.5-.675-1.5-1.5v-21C3 3.675 3.675 3 4.5 3h21Zm0-.375h-21A1.877 1.877 0 0 0 2.625 4.5v21c0 1.034.841 1.875 1.875 1.875h21a1.877 1.877 0 0 0 1.875-1.875v-21A1.877 1.877 0 0 0 25.5 2.625Z" fill="#fff"/><path d="M8.25 21.534A1.407 1.407 0 0 0 6 20.41v2.25a1.405 1.405 0 0 0 2.25-1.125ZM23.67 13.136l-2.25-2.25a1.125 1.125 0 0 0-.796-.33h-6.483c-.299 0-.585.119-.796.33L10.731 13.5l-4.387.364a.375.375 0 0 0-.344.373v2.338c0 .207.168.375.375.375h.412v-.431a2.25 2.25 0 0 1 4.5 0v.43h7.463v-.43a2.25 2.25 0 0 1 4.5 0v.43h.375a.375.375 0 0 0 .375-.374v-2.643c0-.299-.118-.585-.33-.796Zm-6.757.046a.375.375 0 0 1-.375.374h-4.26a.225.225 0 0 1-.159-.384l1.794-1.793c.07-.07.166-.11.265-.11h2.36c.207 0 .375.168.375.375v1.538Zm5.574.374h-4.485a.375.375 0 0 1-.375-.375v-1.537c0-.207.168-.375.375-.375h2.585c.1 0 .195.04.265.11l1.794 1.793a.225.225 0 0 1-.16.384ZM6 18.6h18v1.163H6V18.6ZM6 23.288h18V24H6v-.712ZM11.811 21.528a1.407 1.407 0 1 0-2.814.002 1.407 1.407 0 0 0 2.814-.002ZM19.081 21.528a1.406 1.406 0 1 0-2.813 0 1.406 1.406 0 0 0 2.813 0ZM22.688 21.528a1.406 1.406 0 1 0-2.813 0 1.406 1.406 0 0 0 2.813 0Z" fill="#fff"/><path d="M22.706 16.51a1.707 1.707 0 1 0-3.413.002 1.707 1.707 0 0 0 3.413-.001Zm-2.643 0a.938.938 0 1 1 1.875 0 .938.938 0 0 1-1.875 0ZM10.758 16.51a1.707 1.707 0 1 0-3.414.002 1.707 1.707 0 0 0 3.414-.001Zm-2.643 0a.938.938 0 1 1 1.875 0 .938.938 0 0 1-1.875 0Z" fill="#fff"/></g><defs><clipPath id="a"><path fill="#fff" d="M0 0h30v30H0z"/></clipPath></defs></svg>
